buildsupport/Graphics/pictures/svg/dress.svg

<?xml version="1.0" encoding="UTF-8"?>
<svg xmlns="http://www.w3.org/2000/svg" xmlns:xlink="http://www.w3.org/1999/xlink" width="1024pt" height="1316pt" viewBox="0 0 1024 1316" version="1.1">
<g id="surface1">
<path style="fill-rule:nonzero;fill:rgb(0%,0%,0%);fill-opacity:1;stroke-width:0.0938;stroke-linecap:butt;stroke-linejoin:miter;stroke:rgb(0%,0%,0%);stroke-opacity:1;stroke-miterlimit:4;" d="M 677.517587 -34.161518 C 718.998931 -36.403938 760.6087 -36.334206 802.097383 -34.201888 C 806.768391 -20.453761 809.839589 -6.202831 812.94014 7.956346 C 815.816865 22.218285 819.530188 36.307731 822.337197 50.599031 C 829.980332 87.718242 836.607073 125.046648 844.657499 162.088788 C 824.369984 166.636019 803.587115 169.917073 784.279302 177.958223 C 779.538577 180.05751 774.757489 182.178818 770.497442 185.147914 C 763.030433 190.968664 758.730023 200.6063 749.630179 204.316753 C 745.267391 206.338969 740.420257 204.217661 737.037169 201.318296 C 729.680239 195.046126 725.056932 185.959002 716.698285 180.787856 C 701.639511 171.029108 683.487524 167.876507 665.948309 165.946044 C 658.140056 164.958792 650.240071 165.186337 642.417141 164.345888 C 651.447268 111.137037 660.55812 57.939195 669.768042 4.748694 C 671.987964 -8.283768 674.017082 -21.400642 677.517587 -34.161518 Z M 677.517587 -34.161518 " transform="matrix(1.064579,0,0,1.064349,-257.782523,38.176199)"/>
<path style="fill-rule:nonzero;fill:rgb(94.509804%,35.294118%,14.509804%);fill-opacity:1;stroke-width:0.0938;stroke-linecap:butt;stroke-linejoin:miter;stroke:rgb(94.509804%,35.294118%,14.509804%);stroke-opacity:1;stroke-miterlimit:4;" d="M 663.908183 7.515936 C 665.786861 6.447942 668.417743 6.657137 669.768042 4.748694 C 660.55812 57.939195 651.447268 111.137037 642.417141 164.345888 C 650.240071 165.186337 658.140056 164.958792 665.948309 165.946044 C 683.487524 167.876507 701.639511 171.029108 716.698285 180.787856 C 725.056932 185.959002 729.680239 195.046126 737.037169 201.318296 C 740.420257 204.217661 745.267391 206.338969 749.630179 204.316753 C 758.730023 200.6063 763.030433 190.968664 770.497442 185.147914 C 774.757489 182.178818 779.538577 180.05751 784.279302 177.958223 C 803.587115 169.917073 824.369984 166.636019 844.657499 162.088788 C 836.607073 125.046648 829.980332 87.718242 822.337197 50.599031 C 819.530188 36.307731 815.820534 22.218285 812.94014 7.956346 C 815.728802 8.16921 818.598188 8.727063 820.81811 10.576784 C 836.797876 23.436752 854.968209 33.199171 873.3587 42.135821 L 873.648574 42.719364 C 882.829142 60.119224 890.079662 78.418254 898.02001 96.397986 C 905.237507 112.395875 908.598578 130.015939 908.690311 147.536912 C 908.708657 153.70632 909.090263 160.059232 906.929051 165.957054 C 905.138436 171.157561 903.729428 177.38936 907.079492 182.27791 C 910.579996 187.258211 915.698658 190.957654 918.630422 196.389376 C 921.367714 201.909179 921.686942 208.849305 918.769855 214.369108 C 916.480217 218.868629 914.319004 223.518623 913.658532 228.568656 C 912.407303 237.336483 910.007586 245.876764 908.569224 254.6189 C 907.050137 263.698683 905.578751 272.807827 903.127664 281.685756 C 901.817727 286.416492 898.64012 290.398531 897.528325 295.198999 C 895.708356 303.027284 895.778073 311.138166 894.189269 319.006822 C 892.237206 329.246351 889.298103 339.306046 888.167961 349.707059 C 887.639583 355.505789 885.680182 361.018253 883.698764 366.457315 C 882.31911 370.127397 881.779724 374.047045 881.919157 377.959352 C 870.599392 376.97577 859.239265 376.586741 847.908491 377.42719 C 823.889307 377.42719 799.870123 376.946409 775.847269 376.898698 C 759.496905 376.946409 743.179564 376.116971 726.840207 376.208723 C 701.199196 375.926127 675.547177 376.227073 649.928181 375.20679 C 641.848401 375.078338 633.970431 372.586352 625.857627 373.217606 C 618.786902 373.8562 612.068428 371.199061 605.089435 370.777001 C 604.828915 366.956446 604.64912 363.13589 604.348238 359.319005 C 603.988648 354.327693 602.928222 349.358402 600.510159 344.935953 C 597.897623 340.168516 597.358237 334.689083 596.037292 329.506927 C 594.679654 322.849398 592.368 316.368033 591.846961 309.55636 C 591.410315 304.366864 591.736882 299.148007 591.318583 293.958511 C 590.280173 283.418035 586.779669 273.37669 584.60011 263.067429 C 582.908566 255.437328 583.348881 247.568672 582.427889 239.846819 C 581.888503 229.566919 572.418061 222.02857 573.280344 211.447723 C 573.188612 205.905899 575.547967 200.745763 578.920046 196.477458 C 580.747353 193.537722 584.049716 190.616336 583.007637 186.795781 C 580.677637 172.48613 581.74907 157.926914 582.468251 143.529182 C 584.310235 119.688328 587.069543 95.876835 591.777244 72.417669 C 593.50915 62.398345 598.759907 53.358933 605.089435 45.548998 C 609.499924 40.175997 615.11761 35.889341 621.289359 32.736741 C 626.319958 30.219064 631.966998 29.275853 636.990258 26.717806 C 642.850117 23.847802 647.099157 18.728037 652.36826 14.999233 C 656.107269 12.356774 659.868293 9.688625 663.908183 7.515936 Z M 663.908183 7.515936 " transform="matrix(1.064579,0,0,1.064349,-257.782523,38.176199)"/>
<path style="fill-rule:nonzero;fill:rgb(0%,0%,0%);fill-opacity:1;stroke-width:0.0938;stroke-linecap:butt;stroke-linejoin:miter;stroke:rgb(0%,0%,0%);stroke-opacity:1;stroke-miterlimit:4;" d="M 873.648574 42.719364 C 879.200212 42.836807 884.428953 44.899393 889.569631 46.807836 C 900.29864 50.826576 910.429555 56.258297 921.147556 60.299058 C 926.490045 63.04795 933.707542 65.30872 935.208283 71.925878 C 937.637354 81.908502 937.299779 92.298505 937.178692 102.486653 C 936.72737 111.658188 936.576929 120.888445 935.12022 129.979238 C 932.408613 145.21742 929.388786 160.40789 925.580061 175.418526 C 923.690376 182.527475 921.819037 189.717166 918.630422 196.389376 C 915.698658 190.957654 910.579996 187.258211 907.079492 182.27791 C 903.729428 177.38936 905.138436 171.157561 906.929051 165.957054 C 909.090263 160.059232 908.708657 153.70632 908.690311 147.536912 C 908.598578 130.015939 905.237507 112.395875 898.02001 96.397986 C 890.079662 78.418254 882.829142 60.119224 873.648574 42.719364 Z M 873.648574 42.719364 " transform="matrix(1.064579,0,0,1.064349,-257.782523,38.176199)"/>
<path style="fill-rule:nonzero;fill:rgb(0%,0%,0%);fill-opacity:1;stroke-width:0.0938;stroke-linecap:butt;stroke-linejoin:miter;stroke:rgb(0%,0%,0%);stroke-opacity:1;stroke-miterlimit:4;" d="M 559.590216 60.247677 C 574.190329 53.858064 589.20874 47.758387 605.089435 45.548998 C 598.759907 53.358933 593.50915 62.398345 591.777244 72.417669 C 587.069543 95.876835 584.310235 119.688328 582.468251 143.529182 C 581.74907 157.926914 580.677637 172.48613 583.007637 186.795781 C 584.049716 190.616336 580.747353 193.537722 578.920046 196.477458 C 575.547967 200.745763 573.188612 205.905899 573.280344 211.447723 C 568.238737 207.069315 566.077524 200.529228 563.798894 194.477263 C 557.990405 177.576534 554.350468 160.037212 550.897664 142.53826 C 546.428467 118.87724 542.707805 95.058406 540.476875 71.0891 C 546.09823 66.306983 553.000168 63.407618 559.590216 60.247677 Z M 559.590216 60.247677 " transform="matrix(1.064579,0,0,1.064349,-257.782523,38.176199)"/>
<path style="fill-rule:nonzero;fill:rgb(97.254902%,57.647059%,12.156863%);fill-opacity:1;stroke-width:0.0938;stroke-linecap:butt;stroke-linejoin:miter;stroke:rgb(97.254902%,57.647059%,12.156863%);stroke-opacity:1;stroke-miterlimit:4;" d="M 604.348238 359.319005 C 604.64912 363.13589 604.828915 366.956446 605.089435 370.777001 C 612.068428 371.199061 618.786902 373.8562 625.857627 373.217606 C 633.970431 372.586352 641.848401 375.078338 649.928181 375.20679 C 675.547177 376.227073 701.199196 375.926127 726.840207 376.208723 C 743.179564 376.116971 759.496905 376.946409 775.847269 376.898698 C 799.870123 376.946409 823.889307 377.42719 847.908491 377.42719 C 859.239265 376.586741 870.599392 376.97577 881.919157 377.959352 C 881.779724 374.047045 882.31911 370.127397 883.698764 366.457315 C 882.517252 371.786274 882.627331 377.269377 884.109725 382.528604 C 883.838197 393.538851 881.497189 404.416975 881.717346 415.456582 C 881.728354 424.716199 881.577913 433.975817 881.699 443.246444 C 870.76818 443.275805 859.837359 442.688592 848.917547 443.385907 C 834.588962 444.237366 820.24937 443.268465 805.909777 443.176713 C 787.218405 443.176713 768.58941 440.978333 749.887029 441.315981 C 738.229689 440.695737 726.587026 442.057338 714.929686 441.396723 C 703.25033 441.326991 691.600329 440.688397 679.928311 440.148895 C 655.747678 439.969061 631.578053 439.135952 607.39742 439.176323 C 609.147672 431.116823 609.118318 422.767386 609.918223 414.568422 C 610.857562 405.98777 608.857798 397.418128 606.208569 389.307246 C 604.938994 384.859107 603.280474 380.245813 604.069372 375.548108 C 604.938994 370.178778 604.528033 364.728706 604.348238 359.319005 Z M 604.348238 359.319005 " transform="matrix(1.064579,0,0,1.064349,-257.782523,38.176199)"/>
<path style="fill-rule:nonzero;fill:rgb(94.509804%,35.294118%,14.509804%);fill-opacity:1;stroke-width:0.0938;stroke-linecap:butt;stroke-linejoin:miter;stroke:rgb(94.509804%,35.294118%,14.509804%);stroke-opacity:1;stroke-miterlimit:4;" d="M 607.39742 439.176323 C 631.578053 439.135952 655.747678 439.969061 679.928311 440.148895 C 691.600329 440.688397 703.25033 441.326991 714.929686 441.396723 C 726.587026 442.057338 738.229689 440.695737 749.887029 441.315981 C 768.58941 440.978333 787.218405 443.176713 805.909777 443.176713 C 820.24937 443.268465 834.588962 444.237366 848.917547 443.385907 C 859.837359 442.688592 870.76818 443.275805 881.699 443.246444 C 883.298811 453.126306 889.760434 461.079374 895.627632 468.815907 C 904.28716 479.785783 911.247807 491.955775 918.579052 503.828491 C 938.268472 537.075766 956.967183 570.906583 975.827343 604.627298 C 984.54925 620.959164 993.139062 637.346081 1001.589441 653.82842 C 1007.959332 666.097505 1013.089002 678.957473 1019.000231 691.446763 C 1021.64946 696.937206 1025.538909 701.697302 1028.378941 707.095993 C 1034.29017 717.096967 1038.788722 727.846638 1044.54951 737.939364 C 1049.106771 744.637264 1052.618283 751.959078 1056.408661 759.115738 C 1066.378127 778.556164 1075.99901 798.169083 1085.528161 817.826043 C 1088.639721 824.538623 1091.109154 831.51912 1094.169344 838.24638 C 1099.049502 849.968623 1105.507455 860.916478 1111.007724 872.348784 C 1120.089221 891.958033 1129.020277 911.648024 1138.219192 931.216903 C 1142.049933 939.478258 1146.067807 947.658871 1149.348154 956.166121 C 1154.547541 969.716065 1161.69899 982.388859 1167.999164 995.436001 C 1179.748237 1020.85866 1191.798191 1046.167547 1202.248334 1072.159069 C 1203.147311 1074.188625 1203.609642 1076.375993 1203.767421 1078.607403 C 1178.148426 1096.616497 1145.278909 1099.057101 1119.197583 1116.126654 C 1118.427032 1121.675818 1123.189773 1126.087257 1122.360513 1131.717163 C 1103.379266 1141.207995 1083.348602 1148.449068 1063.09778 1154.706558 C 1050.387353 1158.457382 1037.368706 1161.088831 1024.75735 1165.166292 C 1013.228435 1168.707921 1002.407693 1174.407559 990.55955 1176.895875 C 979.859895 1179.208026 968.697909 1176.778432 958.078979 1179.648436 C 950.678017 1181.567889 945.350205 1187.898781 937.857511 1189.568668 C 933.549763 1190.398107 929.197983 1189.256712 924.890234 1189.396175 C 918.27817 1189.847595 912.458673 1193.488316 905.967696 1194.479238 C 900.29864 1195.528882 894.607569 1193.969097 888.927505 1194.288394 C 878.547078 1195.048101 868.269392 1196.717989 857.958682 1198.006187 C 835.407214 1201.268891 812.558534 1200.277968 789.867633 1199.966011 C 781.43927 1199.786177 773.007237 1199.668735 764.589882 1199.349438 C 750.907093 1199.096202 737.249988 1199.797188 723.578207 1199.936651 C 700.34792 1200.226587 676.908484 1201.419364 653.898355 1197.518067 C 642.978543 1195.767437 632.00736 1193.818624 620.91876 1193.928726 C 608.58994 1193.789263 596.217087 1194.728804 583.917621 1193.63879 C 570.117415 1192.32857 557.887665 1185.267332 544.626844 1181.876176 C 537.629505 1180.008104 530.199189 1179.886992 523.488054 1176.947256 C 509.77958 1171.298999 494.90794 1177.11608 480.770159 1174.616754 C 476.319308 1173.317545 472.41885 1170.506262 467.857921 1169.53736 C 463.939117 1168.62718 459.800156 1168.829034 455.987761 1167.507804 C 452.046942 1165.177302 450.359068 1160.318113 446.187083 1158.288558 C 440.107066 1155.348822 433.50968 1153.708295 427.216844 1151.319072 C 414.359646 1146.558975 400.728226 1143.887155 388.329689 1137.919602 C 382.800067 1135.328524 378.697798 1130.348222 372.907656 1128.278296 C 365.998379 1126.718511 358.799229 1129.467402 351.930314 1127.448857 C 342.239715 1124.626564 332.739918 1120.736277 324.296878 1115.157752 C 320.069853 1112.636406 319.387365 1107.388188 316.71979 1103.637364 C 313.266986 1098.767165 308.240057 1095.398029 303.348891 1092.157347 C 295.199393 1087.008222 286.609581 1082.607793 277.917029 1078.478951 C 267.907201 1073.777575 257.108475 1070.687366 247.770127 1064.639071 C 244.669576 1062.646216 241.789181 1059.346812 242.236835 1055.416154 C 242.456993 1049.268766 248.599387 1045.459221 249.630458 1039.546719 C 250.867009 1035.058208 245.696977 1031.417487 247.700411 1026.998708 C 256.609451 1007.8996 268.527311 990.407988 278.019769 971.617167 C 287.559928 953.707166 296.619409 935.5476 306.089852 917.619248 C 313.30001 905.867645 319.398373 893.506808 325.716894 881.267084 C 332.857335 868.557589 339.498754 855.569168 346.019085 842.529366 C 352.41833 829.507915 359.599134 816.886502 366.658852 804.217378 C 394.527123 754.469414 422.237615 704.618688 450.509509 655.087259 C 474.209465 619.146144 497.259956 582.779299 522.020337 547.54651 C 543.837947 516.398523 566.778359 486.006572 591.458016 457.045953 C 596.749135 451.0784 601.779734 444.8466 607.39742 439.176323 Z M 607.39742 439.176323 " transform="matrix(1.064579,0,0,1.064349,-257.782523,38.176199)"/>
</g>
</svg>

<?xml version="1.0" encoding="UTF-8" standalone="no"?>
<svg
   xmlns:dc="http://purl.org/dc/elements/1.1/"
   xmlns:cc="http://creativecommons.org/ns#"
   xmlns:rdf="http://www.w3.org/1999/02/22-rdf-syntax-ns#"
   xmlns:svg="http://www.w3.org/2000/svg"
   xmlns="http://www.w3.org/2000/svg"
   xmlns:sodipodi="http://sodipodi.sourceforge.net/DTD/sodipodi-0.dtd"
   xmlns:inkscape="http://www.inkscape.org/namespaces/inkscape"
   version="1.1"
   id="Layer_1"
   x="0px"
   y="0px"
   viewBox="242.1451 -35.8681 2031.5553 2611.6456"
   enable-background="new 242.1451 -35.8681 1053.8549 2023.1056"
   xml:space="preserve"
   inkscape:version="0.91 r13725"
   sodipodi:docname="dress.svg"
   width="2031.5552"
   height="2611.6455"><metadata
     id="metadata23"><rdf:RDF><cc:Work
         rdf:about=""><dc:format>image/svg+xml</dc:format><dc:type
           rdf:resource="http://purl.org/dc/dcmitype/StillImage" /><dc:title></dc:title></cc:Work></rdf:RDF></metadata><defs
     id="defs21" /><sodipodi:namedview
     pagecolor="#ffffff"
     bordercolor="#666666"
     borderopacity="1"
     objecttolerance="10"
     gridtolerance="10"
     guidetolerance="10"
     inkscape:pageopacity="0"
     inkscape:pageshadow="2"
     inkscape:window-width="1855"
     inkscape:window-height="1056"
     id="namedview19"
     showgrid="false"
     fit-margin-top="0"
     fit-margin-left="0"
     fit-margin-right="0"
     fit-margin-bottom="0"
     inkscape:zoom="0.32994264"
     inkscape:cx="714.92881"
     inkscape:cy="1136.352"
     inkscape:window-x="65"
     inkscape:window-y="24"
     inkscape:window-maximized="1"
     inkscape:current-layer="Layer_1" /><g
     id="g4158"
     transform="matrix(2.1125235,0,0,2.1125235,-269.39212,39.904102)"><path
       d="m 677.51866,-34.162431 c 41.48,-2.24 83.09,-2.17 124.58,-0.04 4.67,13.75 7.74,27.9999996 10.84,42.1599996 2.8799,14.2600004 6.59,28.3500004 9.4,42.6400004 7.64,37.12 14.27,74.450001 22.32,111.490001 -20.29,4.55 -41.07,7.83 -60.38,15.87 -4.74,2.1 -9.52,4.22 -13.78,7.19 -7.47,5.82 -11.77,15.46 -20.8701,19.17 -4.36,2.02 -9.21,-0.1 -12.59,-3 -7.36,-6.27 -11.98,-15.36 -20.34,-20.53 -15.06,-9.76 -33.21,-12.91 -50.75,-14.84 -7.81,-0.99 -15.71,-0.76 -23.53,-1.6 9.03,-53.21 18.14,-106.410001 27.35,-159.6000014 2.2201,-13.03 4.2501,-26.1499996 7.7501,-38.9099996 z"
       id="path5"
       inkscape:connector-curvature="0"
       style="stroke:#000000;stroke-width:0.0938" /><path
       d="m 663.90866,7.5175686 c 1.88,-1.07 4.51,-0.86 5.86,-2.77 -9.21,53.1900004 -18.32,106.3900014 -27.35,159.6000014 7.82,0.84 15.72,0.61 23.53,1.6 17.54,1.93 35.69,5.08 50.75,14.84 8.36,5.17 12.98,14.26 20.34,20.53 3.38,2.9 8.23,5.02 12.59,3 9.1,-3.71 13.4,-13.35 20.8701,-19.17 4.2599,-2.97 9.04,-5.09 13.78,-7.19 19.31,-8.04 40.09,-11.32 60.38,-15.87 -8.05,-37.04 -14.68,-74.370001 -22.32,-111.490001 -2.81,-14.29 -6.52,-28.38 -9.4,-42.6400004 2.79,0.21 5.66,0.77 7.8799,2.6200004 15.98,12.86 34.15,22.62 52.54,31.56 l 0.29,0.58 c 9.18,17.4 16.43,35.7 24.37,53.68 7.22,16.000001 10.58,33.620001 10.67,51.140001 0.02,6.17 0.4,12.52 -1.76,18.42 -1.79,5.2 -3.2,11.43 0.15,16.32 3.5,4.98 8.62,8.68 11.55,14.11 2.7401,5.52 3.0601,12.46 0.14,17.98 -2.29,4.5 -4.45,9.15 -5.11,14.2 -1.25,8.77 -3.65,17.31 -5.09,26.05 -1.52,9.08 -2.99,18.19 -5.44,27.07 -1.31,4.73 -4.49,8.71 -5.6,13.51 -1.82,7.83 -1.75,15.94 -3.34,23.81 -1.95,10.24 -4.89,20.3 -6.02,30.7 -0.53,5.8 -2.49,11.31 -4.47,16.75 -1.38,3.67 -1.92,7.59 -1.78,11.5 -11.32,-0.98 -22.68,-1.37 -34.01,-0.53 -24.02,0 -48.04,-0.48 -72.06,-0.53 -16.35,0.05 -32.67,-0.78 -49.01,-0.69 -25.64,-0.28 -51.29,0.02 -76.91,-1 -8.08,-0.13 -15.96,-2.62 -24.07,-1.99 -7.07,0.64 -13.79,-2.02 -20.77,-2.44 -0.26,-3.82 -0.44,-7.64 -0.74,-11.46 -0.36,-4.99 -1.42,-9.96 -3.84,-14.38 -2.61,-4.77 -3.15,-10.25 -4.47,-15.43 -1.36,-6.66 -3.67,-13.14 -4.19,-19.95 -0.44,-5.19 -0.11,-10.41 -0.53,-15.6 -1.04,-10.54 -4.54,-20.58 -6.72,-30.89 -1.69,-7.63 -1.25,-15.5 -2.17,-23.22 -0.54,-10.28 -10.01,-17.82 -9.15,-28.4 -0.09,-5.54 2.27,-10.7 5.64,-14.97 1.83,-2.94 5.13,-5.86 4.09,-9.68 -2.33,-14.31 -1.2599,-28.87 -0.54,-43.27 1.84,-23.84 4.6,-47.650001 9.31,-71.110001 1.73,-10.02 6.98,-19.06 13.31,-26.87 4.41,-5.37 10.03,-9.66 16.2,-12.81 5.03,-2.52 10.68,-3.46 15.7,-6.02 5.86,-2.87 10.11,-7.99 15.38,-11.72 3.74,-2.64 7.5,-5.3100004 11.54,-7.4800004 z"
       id="path7"
       inkscape:connector-curvature="0"
       style="fill:#f15a25;stroke:#f15a25;stroke-width:0.0938" /><path
       d="m 873.64866,42.717569 c 5.55,0.12 10.78,2.18 15.92,4.09 10.73,4.02 20.86,9.45 31.58,13.49 5.34,2.75 12.56,5.01 14.06,11.63 2.43,9.98 2.09,20.37 1.97,30.560001 -0.45,9.17 -0.6,18.4 -2.06,27.49 -2.71,15.24 -5.73,30.43 -9.54,45.44 -1.89,7.11 -3.76,14.3 -6.95,20.97 -2.93,-5.43 -8.05,-9.13 -11.55,-14.11 -3.35,-4.89 -1.94,-11.12 -0.15,-16.32 2.16,-5.9 1.78,-12.25 1.76,-18.42 -0.09,-17.52 -3.45,-35.14 -10.67,-51.140001 -7.94,-17.98 -15.19,-36.28 -24.37,-53.68 z"
       id="path9"
       inkscape:connector-curvature="0"
       style="stroke:#000000;stroke-width:0.0938" /><path
       d="m 559.58866,60.247569 c 14.6,-6.39 29.62,-12.49 45.5,-14.7 -6.33,7.81 -11.58,16.85 -13.31,26.87 -4.71,23.46 -7.47,47.270001 -9.31,71.110001 -0.72,14.4 -1.79,28.96 0.54,43.27 1.04,3.82 -2.2599,6.74 -4.09,9.68 -3.37,4.27 -5.73,9.43 -5.64,14.97 -5.04,-4.38 -7.2,-10.92 -9.48,-16.97 -5.81,-16.9 -9.45,-34.44 -12.9,-51.94 -4.47,-23.66 -8.19,-47.480001 -10.42,-71.450001 5.62,-4.78 12.52,-7.68 19.11,-10.84 z"
       id="path11"
       inkscape:connector-curvature="0"
       style="stroke:#000000;stroke-width:0.0938" /><path
       d="m 604.34866,359.31757 c 0.3,3.82 0.48,7.64 0.74,11.46 6.98,0.42 13.7,3.08 20.77,2.44 8.11,-0.63 15.99,1.86 24.07,1.99 25.62,1.02 51.27,0.72 76.91,1 16.34,-0.09 32.66,0.74 49.01,0.69 24.02,0.05 48.04,0.53 72.06,0.53 11.33,-0.84 22.69,-0.45 34.01,0.53 -0.14,-3.91 0.4,-7.83 1.78,-11.5 -1.18,5.33 -1.07,10.81 0.41,16.07 -0.27,11.01 -2.61,21.89 -2.39,32.93 0.01,9.26 -0.14,18.52 -0.02,27.79 -10.93,0.03 -21.86,-0.56 -32.78,0.14 -14.33,0.85 -28.67,-0.12 -43.01,-0.21 -18.69,0 -37.32,-2.2 -56.02,-1.86 -11.66,-0.62 -23.3,0.74 -34.96,0.08 -11.68,-0.07 -23.33,-0.71 -35,-1.25 -24.18,-0.18 -48.35,-1.01 -72.53,-0.97 1.75,-8.06 1.72,-16.41 2.52,-24.61 0.94,-8.58 -1.06,-17.15 -3.71,-25.26 -1.27,-4.45 -2.93,-9.06 -2.14,-13.76 0.87,-5.37 0.46,-10.82 0.28,-16.23 z"
       id="path13"
       inkscape:connector-curvature="0"
       style="fill:#f8931f;stroke:#f8931f;stroke-width:0.0938" /><path
       d="m 607.39866,439.17757 c 24.18,-0.04 48.35,0.79 72.53,0.97 11.67,0.54 23.32,1.18 35,1.25 11.66,0.66 23.3,-0.7 34.96,-0.08 18.7,-0.34 37.33,1.86 56.02,1.86 14.34,0.09 28.68,1.06 43.01,0.21 10.92,-0.7 21.85,-0.11 32.78,-0.14 1.6,9.88 8.06,17.83 13.93,25.57 8.66,10.97 15.6201,23.14 22.95,35.01 19.69,33.25 38.39,67.08 57.25,100.8 8.72,16.33 17.31,32.72 25.76014,49.2 6.37,12.27 11.5,25.13 17.4099,37.62 2.65,5.49 6.54,10.25 9.38,15.65 5.91,10 10.41,20.75 16.17,30.84 4.5599,6.7 8.0699,14.02 11.86,21.18 9.97,19.44 19.59,39.05 29.12,58.71 3.11,6.71 5.58,13.69 8.64,20.42 4.88,11.72 11.34,22.67 16.84,34.1 9.0801,19.61 18.01,39.3 27.2101,58.87 3.83,8.2599 7.85,16.44 11.1299,24.95 5.2001,13.5499 12.3501,26.22 18.65,39.27 11.75,25.41993 23.8,50.73003 34.25,76.72003 0.9,2.03 1.36,4.22 1.52,6.45 -25.62,18.01 -58.49,20.4501 -84.5699,37.52 -0.77,5.55 3.99,9.96 3.1599,15.59 -18.98,9.49 -39.01,16.7301 -59.26,22.99 -12.71,3.75 -25.73,6.38 -38.34,10.4601 -11.53,3.5399 -22.35,9.24 -34.20004,11.73 -10.7001,2.3099 -21.86,-0.12 -32.48,2.75 -7.4,1.92 -12.73,8.25 -20.22,9.92 -4.31,0.83 -8.66,-0.3101 -12.97,-0.17 -6.61,0.45 -12.43,4.09 -18.92,5.08 -5.67,1.05 -11.36,-0.51 -17.04,-0.1899 -10.38,0.76 -20.66,2.4299 -30.97,3.72 -22.55,3.26 -45.4,2.27 -68.09,1.96 -8.43,-0.1799 -16.86,-0.2999 -25.28,-0.62 -13.68,-0.25 -27.34,0.4501 -41.01,0.5901 -23.23,0.2899 -46.67,1.48 -69.68,-2.42 -10.92,-1.75 -21.89,-3.7 -32.98,-3.59 -12.33,-0.14 -24.7,0.7999 -37,-0.29 -13.8,-1.3099 -26.03,-8.37 -39.29,-11.76 -7,-1.87 -14.43,-1.99 -21.14,-4.9299 -13.71,-5.65 -28.58,0.1699 -42.72,-2.3301 -4.45,-1.2999 -8.35,-4.11 -12.91,-5.08 -3.92,-0.91 -8.06,-0.71 -11.87,-2.03 -3.94,-2.33 -5.63,-7.1899 -9.8,-9.22 -6.08,-2.9401 -12.68,-4.5801 -18.97,-6.97 -12.86,-4.76 -26.49,-7.4301 -38.89,-13.4 -5.53,-2.59 -9.63,-7.5701 -15.42,-9.64 -6.91,-1.5601 -14.11,1.1899 -20.98,-0.83 -9.69,-2.8201 -19.19,-6.7101 -27.63,-12.29 -4.23,-2.52 -4.91,-7.77 -7.58,-11.52 -3.45,-4.87 -8.48,-8.24 -13.37,-11.48 -8.15,-5.15 -16.74,-9.55 -25.43,-13.6801 -10.01,-4.7 -20.81,-7.7899 -30.15,-13.84 -3.1,-1.99 -5.98,-5.29 -5.53,-9.22 0.22,-6.15 6.36,-9.9601 7.39,-15.87 1.24,-4.49 -3.93,-8.13 -1.93,-12.55 8.91,-19.1 20.83,-36.59003 30.32,-55.38003 9.54,-17.91 18.6,-36.0699 28.07,-54 7.21,-11.75 13.31,-24.11 19.63,-36.35 7.14,-12.71 13.78,-25.7 20.3,-38.74 6.4,-13.02 13.58,-25.64 20.64,-38.31 27.87,-49.75 55.58,-99.6 83.85,-149.13 23.7,-35.94 46.75,-72.31 71.51,-107.54 21.82,-31.15 44.76,-61.54 69.44,-90.5 5.29,-5.9702 10.32,-12.2002 15.94,-17.8702 z"
       id="path15"
       inkscape:connector-curvature="0"
       style="fill:#f15a25;stroke:#f15a25;stroke-width:0.0938" /></g></svg>
